icons/Media/play-list-2-fill.svg

<svg viewBox="0 0 24 24" xmlns="http://www.w3.org/2000/svg"><path d="M22 18V20H2V18H22ZM2 3.5L10 8.5L2 13.5V3.5ZM22 11V13H12V11H22ZM22 4V6H12V4H22Z"/></svg>

<svg xmlns="http://www.w3.org/2000/svg" viewBox="0 0 24 24">
    <g>
        <path fill="none" d="M0 0H24V24H0z"/>
        <path d="M22 18v2H2v-2h20zM2 3.5l8 5-8 5v-10zM22 11v2H12v-2h10zm0-7v2H12V4h10z"/>
    </g>
</svg>
